imgsSmall/instaGold.svg

<?xml version="1.0" encoding="UTF-8" standalone="no"?>
<svg
   xmlns:dc="http://purl.org/dc/elements/1.1/"
   xmlns:cc="http://creativecommons.org/ns#"
   xmlns:rdf="http://www.w3.org/1999/02/22-rdf-syntax-ns#"
   xmlns:svg="http://www.w3.org/2000/svg"
   xmlns="http://www.w3.org/2000/svg"
   xmlns:sodipodi="http://sodipodi.sourceforge.net/DTD/sodipodi-0.dtd"
   xmlns:inkscape="http://www.inkscape.org/namespaces/inkscape"
   width="60"
   height="60"
   viewBox="0 0 60 60"
   fill="none"
   version="1.1"
   id="svg8"
   sodipodi:docname="instaGold.svg"
   inkscape:version="1.0.1 (3bc2e813f5, 2020-09-07)">
  <metadata
     id="metadata14">
    <rdf:RDF>
      <cc:Work
         rdf:about="">
        <dc:format>image/svg+xml</dc:format>
        <dc:type
           rdf:resource="http://purl.org/dc/dcmitype/StillImage" />
        <dc:title></dc:title>
      </cc:Work>
    </rdf:RDF>
  </metadata>
  <defs
     id="defs12" />
  <sodipodi:namedview
     pagecolor="#ffffff"
     bordercolor="#666666"
     borderopacity="1"
     objecttolerance="10"
     gridtolerance="10"
     guidetolerance="10"
     inkscape:pageopacity="0"
     inkscape:pageshadow="2"
     inkscape:window-width="1366"
     inkscape:window-height="705"
     id="namedview10"
     showgrid="false"
     inkscape:zoom="6.7544984"
     inkscape:cx="34.758114"
     inkscape:cy="24.276966"
     inkscape:window-x="-8"
     inkscape:window-y="-8"
     inkscape:window-maximized="1"
     inkscape:current-layer="svg8" />
  <g
     id="g21"
     transform="scale(2.2258)">
    <path
       d="m 13.4783,2.42851 c 3.5989,0 4.0252,0.01375 5.4464,0.0786 1.3141,0.05992 2.0278,0.27949 2.5027,0.46407 0.6292,0.24451 1.0782,0.53657 1.5498,1.0082 0.4717,0.47167 0.7637,0.92066 1.0082,1.54979 0.1846,0.47494 0.4042,1.1886 0.4641,2.50272 0.0648,1.42123 0.0786,1.84753 0.0786,5.44631 0,3.5989 -0.0138,4.0252 -0.0786,5.4464 -0.0599,1.3142 -0.2795,2.0278 -0.4641,2.5028 -0.2445,0.6291 -0.5365,1.0781 -1.0082,1.5497 -0.4716,0.4717 -0.9206,0.7637 -1.5498,1.0082 -0.4749,0.1846 -1.1886,0.4042 -2.5027,0.4641 -1.421,0.0649 -1.8473,0.0786 -5.4464,0.0786 -3.59911,0 -4.02531,-0.0137 -5.44638,-0.0786 C 6.71779,24.3895 6.00413,24.1699 5.52919,23.9853 4.90006,23.7408 4.45107,23.4488 3.97944,22.9771 3.50782,22.5055 3.2157,22.0565 2.97119,21.4274 2.78661,20.9524 2.56704,20.2388 2.50711,18.9246 2.44227,17.5034 2.42852,17.0771 2.42852,13.4782 2.42852,9.87942 2.44227,9.45312 2.50711,8.03189 2.56704,6.71777 2.78661,6.00411 2.97119,5.52917 3.2157,4.90004 3.50777,4.45105 3.97944,3.97943 4.45107,3.50775 4.90006,3.21569 5.52919,2.97118 6.00413,2.7866 6.71779,2.56703 8.03192,2.50711 9.45315,2.44226 9.87946,2.42851 13.4783,2.42851 Z M 13.4783,0 C 9.81782,0 9.35882,0.0155156 7.92122,0.0811091 6.48661,0.146542 5.50682,0.374407 4.6495,0.707565 3.76319,1.05201 3.01153,1.51288 2.26218,2.26217 1.51288,3.01152 1.05201,3.76317 0.707621,4.64949 0.374409,5.50681 0.146543,6.48659 0.0811094,7.92119 0.0155157,9.35879 0,9.81779 0,13.4782 c 0,3.6605 0.0155157,4.1195 0.0811094,5.5571 0.0654336,1.4346 0.2932996,2.4144 0.6265116,3.2717 0.344389,0.8864 0.805259,1.638 1.554559,2.3874 0.74935,0.7492 1.50101,1.2101 2.38732,1.5545 0.85732,0.3332 1.83711,0.5611 3.27172,0.6265 1.4376,0.0656 1.8966,0.0811 5.55708,0.0811 3.6605,0 4.1195,-0.0155 5.5571,-0.0811 1.4346,-0.0654 2.4144,-0.2933 3.2717,-0.6265 0.8863,-0.3444 1.638,-0.8053 2.3873,-1.5545 0.7493,-0.7494 1.2102,-1.501 1.5547,-2.3874 0.3331,-0.8573 0.561,-1.8371 0.6264,-3.2717 0.0656,-1.4376 0.0811,-1.8966 0.0811,-5.5571 0,-3.66041 -0.0155,-4.11941 -0.0811,-5.55701 C 26.8101,6.48659 26.5822,5.50681 26.2491,4.64949 25.9046,3.76317 25.4437,3.01152 24.6944,2.26217 23.9451,1.51288 23.1934,1.05201 22.3071,0.707565 21.4498,0.374407 20.47,0.146542 19.0354,0.0811091 17.5978,0.0155156 17.1388,0 13.4783,0 Z"
       fill="#e0a340"
       id="path2" />
    <path
       d="m 13.4845,6.56348 c -3.82252,0 -6.92127,3.09873 -6.92127,6.92122 0,3.8226 3.09875,6.9213 6.92127,6.9213 3.8226,0 6.9213,-3.0987 6.9213,-6.9213 0,-3.82249 -3.0987,-6.92122 -6.9213,-6.92122 z m 0,11.41402 c -2.4813,0 -4.49275,-2.0115 -4.49275,-4.4928 0,-2.4812 2.01145,-4.49271 4.49275,-4.49271 2.4813,0 4.4928,2.01151 4.4928,4.49271 0,2.4813 -2.0115,4.4928 -4.4928,4.4928 z"
       fill="#e0a340"
       id="path4" />
    <circle
       cx="20.4217"
       cy="5.7179599"
       r="1.6337301"
       fill="#e0a340"
       id="circle6" />
  </g>
</svg>

<svg width="27" height="27" viewBox="0 0 27 27" fill="none" xmlns="http://www.w3.org/2000/svg">
<path d="M13.4783 2.42851C17.0772 2.42851 17.5035 2.44226 18.9247 2.50711C20.2388 2.56703 20.9525 2.7866 21.4274 2.97118C22.0566 3.21569 22.5056 3.50775 22.9772 3.97938C23.4489 4.45105 23.7409 4.90004 23.9854 5.52917C24.17 6.00411 24.3896 6.71777 24.4495 8.03189C24.5143 9.45312 24.5281 9.87942 24.5281 13.4782C24.5281 17.0771 24.5143 17.5034 24.4495 18.9246C24.3896 20.2388 24.17 20.9524 23.9854 21.4274C23.7409 22.0565 23.4489 22.5055 22.9772 22.9771C22.5056 23.4488 22.0566 23.7408 21.4274 23.9853C20.9525 24.1699 20.2388 24.3895 18.9247 24.4494C17.5037 24.5143 17.0774 24.528 13.4783 24.528C9.87919 24.528 9.45299 24.5143 8.03192 24.4494C6.71779 24.3895 6.00413 24.1699 5.52919 23.9853C4.90006 23.7408 4.45107 23.4488 3.97944 22.9771C3.50782 22.5055 3.2157 22.0565 2.97119 21.4274C2.78661 20.9524 2.56704 20.2388 2.50711 18.9246C2.44227 17.5034 2.42852 17.0771 2.42852 13.4782C2.42852 9.87942 2.44227 9.45312 2.50711 8.03189C2.56704 6.71777 2.78661 6.00411 2.97119 5.52917C3.2157 4.90004 3.50777 4.45105 3.97944 3.97943C4.45107 3.50775 4.90006 3.21569 5.52919 2.97118C6.00413 2.7866 6.71779 2.56703 8.03192 2.50711C9.45315 2.44226 9.87946 2.42851 13.4783 2.42851ZM13.4783 0C9.81782 0 9.35882 0.0155156 7.92122 0.0811091C6.48661 0.146542 5.50682 0.374407 4.6495 0.707565C3.76319 1.05201 3.01153 1.51288 2.26218 2.26217C1.51288 3.01152 1.05201 3.76317 0.707621 4.64949C0.374409 5.50681 0.146543 6.48659 0.0811094 7.92119C0.0155157 9.35879 0 9.81779 0 13.4782C0 17.1387 0.0155157 17.5977 0.0811094 19.0353C0.146543 20.4699 0.374409 21.4497 0.707621 22.307C1.05201 23.1934 1.51288 23.945 2.26218 24.6944C3.01153 25.4436 3.76319 25.9045 4.6495 26.2489C5.50682 26.5821 6.48661 26.81 7.92122 26.8754C9.35882 26.941 9.81782 26.9565 13.4783 26.9565C17.1388 26.9565 17.5978 26.941 19.0354 26.8754C20.47 26.81 21.4498 26.5821 22.3071 26.2489C23.1934 25.9045 23.9451 25.4436 24.6944 24.6944C25.4437 23.945 25.9046 23.1934 26.2491 22.307C26.5822 21.4497 26.8101 20.4699 26.8755 19.0353C26.9411 17.5977 26.9566 17.1387 26.9566 13.4782C26.9566 9.81779 26.9411 9.35879 26.8755 7.92119C26.8101 6.48659 26.5822 5.50681 26.2491 4.64949C25.9046 3.76317 25.4437 3.01152 24.6944 2.26217C23.9451 1.51288 23.1934 1.05201 22.3071 0.707565C21.4498 0.374407 20.47 0.146542 19.0354 0.0811091C17.5978 0.0155156 17.1388 0 13.4783 0Z" fill="#E0A340"/>
<path d="M13.4845 6.56348C9.66198 6.56348 6.56323 9.66221 6.56323 13.4847C6.56323 17.3073 9.66198 20.406 13.4845 20.406C17.3071 20.406 20.4058 17.3073 20.4058 13.4847C20.4058 9.66221 17.3071 6.56348 13.4845 6.56348ZM13.4845 17.9775C11.0032 17.9775 8.99175 15.966 8.99175 13.4847C8.99175 11.0035 11.0032 8.99199 13.4845 8.99199C15.9658 8.99199 17.9773 11.0035 17.9773 13.4847C17.9773 15.966 15.9658 17.9775 13.4845 17.9775Z" fill="#E0A340"/>
<circle cx="20.4217" cy="5.71796" r="1.63373" fill="#E0A340"/>
</svg>
